com.fiatuconnect/capabilities/chargespeed.svg

<svg height="960" viewBox="0 0 960 960" width="960" xmlns="http://www.w3.org/2000/svg"><path d="m842.82368 413.163725c-4.0634-6.746706-11.201806-10.8057-19.108964-10.8057h-119.595756l27.949605-240.358274c.384376-3.291076-.65893-6.637003-2.910273-9.105311-2.196433-2.468307-5.38126-3.89444-8.73082-3.89444h-.494197c-4.337955 0-8.236623 2.358605-10.268323 6.143342l-198.008401 369.697573c-3.733936 6.966111-3.514292 15.138951.549108 21.940508 4.0634 6.746707 11.201806 10.805701 19.108964 10.805701l119.595756.054851-27.949605 240.358274c-.384376 3.291076.65893 6.637003 2.855363 9.105311 2.196432 2.468307 5.381259 3.89444 8.730819 3.89444h.494198c4.337954 0 8.236622-2.358605 10.268322-6.143342l198.008401-369.697573c3.733936-7.020963 3.569203-15.193802-.494197-21.99536zm-669.4389-148.627486 222.656881.463804c11.045671.023009 19.981304 8.995947 19.95834 20.041618-.022813 10.930612-8.810026 19.794916-19.697167 19.956106l-.344495.00219-222.656881-.463805c-11.045671-.023009-19.981304-8.995947-19.95834-20.041618.022813-10.930612 8.810026-19.794916 19.697167-19.956106zm195.818881 317.999956c11.045695 0 20 8.954305 20 20 0 10.930636-8.768729 19.813225-19.655511 19.997093l-.344489.002907h-259.860542c-11.0456951 0-20.0000001-8.954305-20.0000001-20 0-10.930635 8.7687286-19.813225 19.6555101-19.997093l.34449-.002907zm-296.8348221-158.999983 360.6568811.463805c11.045686.014204 19.988468 8.980017 19.97428 20.025703-.014073 10.930627-8.794218 19.801932-19.681227 19.971799l-.344493.002464-360.6568811-.463804c-11.0456858-.014205-19.9884682-8.980018-19.9742803-20.025704.0140736-10.930626 8.794218-19.801932 19.6812274-19.971799z"/></svg>

<?xml version="1.0" encoding="UTF-8"?>
<svg width="960px" height="960px" viewBox="0 0 960 960" version="1.1" xmlns="http://www.w3.org/2000/svg" xmlns:xlink="http://www.w3.org/1999/xlink">
    <title>se.cohen.renaultze/capabilities/chargespeed</title>
    <g id="se.cohen.renaultze/capabilities/chargespeed" stroke="none" stroke-width="1" fill="none" fill-rule="evenodd">
        <path d="M720.427472,149 C723.777032,149 726.961859,150.426133 729.158292,152.89444 C731.409635,155.362748 732.452941,158.708675 732.068565,161.999751 L732.068565,161.999751 L704.11896,402.358025 L823.714716,402.358025 C831.621874,402.358025 838.76028,406.417019 842.82368,413.163725 C846.88708,419.965283 847.051813,428.138122 843.317877,435.159085 L843.317877,435.159085 L645.309476,804.856658 C643.277776,808.641395 639.379108,811 635.041154,811 L635.041154,811 L634.546956,811 C631.197396,811 628.012569,809.573867 625.816137,807.10556 C623.619704,804.637252 622.576398,801.291325 622.960774,798.000249 L622.960774,798.000249 L650.910379,557.641975 L531.314623,557.587124 C523.407465,557.587124 516.269059,553.52813 512.205659,546.781423 C508.142259,539.979866 507.922615,531.807026 511.656551,524.840915 L511.656551,524.840915 L709.664952,155.143342 C711.696652,151.358605 715.59532,149 719.933275,149 L719.933275,149 Z M369.203661,582.536195 C380.249356,582.536195 389.203661,591.4905 389.203661,602.536195 C389.203661,613.466831 380.434932,622.34942 369.54815,622.533288 L369.203661,622.536195 L109.343119,622.536195 C98.2974239,622.536195 89.3431189,613.58189 89.3431189,602.536195 C89.3431189,591.60556 98.1118475,582.72297 108.998629,582.539102 L109.343119,582.536195 L369.203661,582.536195 Z M72.3688389,423.536212 L433.02572,424.000017 C444.071406,424.014221 453.014188,432.980034 453,444.02572 C452.985927,454.956347 444.205782,463.827652 433.318773,463.997519 L432.97428,463.999983 L72.3173989,463.536179 C61.2717131,463.521974 52.3289307,454.556161 52.3431186,443.510475 C52.3571922,432.579849 61.1373366,423.708543 72.024346,423.538676 L72.3688389,423.536212 Z M173.38478,264.536239 L396.041661,265.000043 C407.087332,265.023052 416.022965,273.99599 416.000001,285.041661 C415.977188,295.972273 407.189975,304.836577 396.302834,304.997767 L395.958339,304.999957 L173.301458,304.536152 C162.255787,304.513143 153.320154,295.540205 153.343118,284.494534 C153.365931,273.563922 162.153144,264.699618 173.040285,264.538428 L173.38478,264.536239 Z" id="Combined-Shape" fill="#000000" fill-rule="nonzero"></path>
    </g>
</svg>
